X:0339
M:2/4
L:1/16
Q:1/4=80
P:ABA % Aird uses a da capo
K:D
P:A
a2f2 fgaf|g2e2 Te4|f2d2 defg|agab Ta2d'2|\
a2f2 fgaf|g2e2 Te4|fdge d2e2|d2dd  d4  :|
P:B
d2de f2f2|f2f2 Tf4|fefg fefg|fefg Tf4  :|

